React/src/assets/images/otherSkills/postgresql-icon.svg

<svg width="130" height="130" viewBox="0 0 130 130" fill="none" xmlns="http://www.w3.org/2000/svg">
<path d="M96.398 94.6357C97.2257 87.7447 96.9769 86.7392 102.106 87.8513L103.411 87.9681C107.357 88.1458 112.516 87.3334 115.598 85.9267C122.124 82.9001 125.993 77.8423 119.559 79.1728C104.884 82.1994 103.817 77.2279 103.817 77.2279C119.321 54.224 125.805 25.0248 120.204 17.8798C104.95 -1.62016 78.5382 7.60171 78.0964 7.84546L77.9542 7.87085C75.0597 7.26148 71.8604 6.90601 68.1534 6.85523C61.5112 6.75367 56.4737 8.59702 52.6448 11.4966C52.6448 11.4966 5.53506 -7.91196 7.72373 35.9072C8.19092 45.2306 21.0792 106.493 36.4659 87.958C42.0976 81.1837 47.5312 75.4607 47.5312 75.4607C50.2226 77.2533 53.4573 78.1673 56.8444 77.8373L57.1085 77.6138C57.0303 78.4916 57.0662 79.3757 57.2151 80.2443C53.2542 84.6724 54.4222 85.4494 46.5003 87.0794C38.487 88.7298 43.1995 91.6701 46.2667 92.4419C49.994 93.3763 58.6167 94.6966 64.4464 86.5412L64.2128 87.4705C65.7667 88.7146 65.6601 96.408 65.8886 101.902C66.1171 107.397 66.4776 112.531 67.5999 115.552C68.7222 118.574 70.0374 126.369 80.4476 124.185C89.1464 122.322 95.7987 119.635 96.4081 94.6814" fill="black"/>
<path d="M96.398 94.6357C97.2257 87.7447 96.9769 86.7392 102.106 87.8513L103.411 87.9681C107.357 88.1458 112.516 87.3334 115.598 85.9267C122.124 82.9001 125.993 77.8423 119.559 79.1728C104.884 82.1994 103.817 77.2279 103.817 77.2279C119.321 54.224 125.805 25.0248 120.204 17.8798C104.95 -1.62016 78.5382 7.60171 78.0964 7.84546L77.9542 7.87085C75.0597 7.26148 71.8604 6.90601 68.1534 6.85523C61.5112 6.75367 56.4737 8.59702 52.6448 11.4966C52.6448 11.4966 5.53506 -7.91196 7.72373 35.9072C8.19092 45.2306 21.0792 106.493 36.4659 87.958C42.0976 81.1837 47.5312 75.4607 47.5312 75.4607C50.2226 77.2533 53.4573 78.1673 56.8444 77.8373L57.1085 77.6138C57.0303 78.4916 57.0662 79.3757 57.2151 80.2443C53.2542 84.6724 54.4222 85.4494 46.5003 87.0794C38.487 88.7298 43.1995 91.6701 46.2667 92.4419C49.994 93.3763 58.6167 94.6966 64.4464 86.5412L64.2128 87.4705C65.7667 88.7146 65.6601 96.408 65.8886 101.902C66.1171 107.397 66.4776 112.531 67.5999 115.552C68.7222 118.574 70.0374 126.369 80.4476 124.185C89.1464 122.322 95.7987 119.635 96.4081 94.6814" stroke="black" stroke-width="5.3725"/>
<path d="M119.514 79.2185C104.838 82.245 103.771 77.2735 103.771 77.2735C119.275 54.2696 125.76 25.0704 120.164 17.9255C104.909 -1.5745 78.4976 7.65245 78.0558 7.89113L77.9137 7.91652C74.6877 7.26924 71.408 6.92749 68.1179 6.89581C61.4758 6.79425 56.4383 8.63761 52.6094 11.5372C52.6094 11.5372 5.49452 -7.87137 7.68827 35.9478C8.15545 45.2712 21.0437 106.534 36.4304 87.9985C42.0976 81.1837 47.5312 75.4607 47.5312 75.4607C50.2226 77.2532 53.4574 78.1673 56.8445 77.8372L57.1086 77.6138C57.031 78.4915 57.0668 79.3756 57.2152 80.2442C53.2543 84.6724 54.4222 85.4493 46.5004 87.0794C38.4871 88.7298 43.1996 91.67 46.2668 92.4419C49.9941 93.3763 58.6168 94.6966 64.4465 86.5411L64.2129 87.4704C65.7668 88.7146 66.8535 95.5599 66.6707 101.765C66.4879 107.971 66.366 112.226 67.5847 115.558C68.8035 118.889 70.0222 126.374 80.4324 124.19C89.1312 122.327 93.6355 117.487 94.2703 109.433C94.7172 103.705 95.7226 104.548 95.7937 99.4294L96.6062 97.0021C97.5355 89.2325 96.7586 86.729 102.116 87.897L103.421 88.0138C107.367 88.1915 112.531 87.379 115.558 85.9724C122.083 82.9458 125.953 77.888 119.519 79.2185H119.514Z" fill="#336791"/>
<path d="M78.0507 7.65264C76.4257 8.16045 104.274 -2.529 120.108 17.6972C125.694 24.8421 119.219 54.0413 103.716 77.0452M65.071 83.6214C64.6648 98.0737 65.1726 112.628 66.5843 116.121C67.996 119.615 71.0277 126.532 81.4429 124.307C90.1417 122.444 93.3105 118.833 94.6816 110.866L97.896 85.3886L65.071 83.6214ZM52.589 11.1718C52.589 11.1718 5.44369 -8.10478 7.63744 35.7144C8.10463 45.0378 20.9929 106.3 36.3796 87.7651C41.996 80.996 47.0742 75.6995 47.0742 75.6995L52.589 11.1718Z" stroke="white" stroke-width="1.79" stroke-linecap="round" stroke-linejoin="round"/>
<path d="M103.721 77.0352C103.721 77.0352 104.736 82.0118 119.463 78.975C125.897 77.6446 122.022 82.7024 115.502 85.7289C110.15 88.2172 98.1449 88.852 97.9468 85.4243C97.439 76.5629 104.264 79.2543 103.771 77.0352C103.325 75.0344 100.268 73.0743 98.2566 68.1789C96.4945 63.9133 74.0847 31.1594 104.472 36.0192C105.589 35.7907 96.5503 7.07386 68.1128 6.65746C39.6753 6.24105 40.5742 41.6203 40.5742 41.6203" stroke="white" stroke-width="1.79" stroke-linecap="round" stroke-linejoin="bevel"/>
<path d="M57.1136 80.0718C53.1526 84.4999 54.3206 85.2769 46.3987 86.907C38.3854 88.5574 43.0979 91.4976 46.1651 92.2695C49.8925 93.2038 58.5151 94.5241 64.3448 86.3636C66.1222 83.8753 64.3347 79.9144 61.8972 78.9089C60.719 78.4214 59.1448 77.812 57.1237 80.0769L57.1136 80.0718Z" stroke="white" stroke-width="1.79" stroke-linejoin="round"/>
<path d="M56.8546 79.9957C56.4484 77.3906 57.7077 74.298 59.0534 70.6722C61.0745 65.2386 65.7362 59.8051 62.0089 42.5547C59.2312 29.707 40.5792 39.8785 40.5792 41.6203C40.5792 43.3621 41.4222 50.4562 40.2745 58.7082C38.7663 69.484 47.13 78.5941 56.7581 77.6648" stroke="white" stroke-width="1.79" stroke-linecap="round" stroke-linejoin="round"/>
<path d="M52.4163 41.3612C52.33 41.9554 53.5081 43.5448 55.0366 43.7581C56.5652 43.9714 57.8702 42.7323 57.9566 42.1331C58.0429 41.5339 56.8648 40.8839 55.3363 40.6706C53.8077 40.4573 52.4925 40.7722 52.4163 41.3612V41.3612Z" fill="white" stroke="white" stroke-width="0.5975"/>
<path d="M98.9523 40.1476C99.0335 40.7418 97.8605 42.3312 96.332 42.5445C94.8035 42.7578 93.4882 41.5187 93.4121 40.9195C93.3359 40.3203 94.5038 39.6703 96.0324 39.457C97.5609 39.2437 98.8761 39.5586 98.9523 40.1476Z" fill="white" stroke="white" stroke-width="0.2975"/>
<path d="M104.416 36.0291C104.67 40.7009 103.411 43.8748 103.248 48.8462C103.015 56.0673 106.691 64.3345 101.151 72.6119" stroke="white" stroke-width="1.79" stroke-linecap="round" stroke-linejoin="round"/>
</svg>

<svg fill="none" height="130" width="130" xmlns="http://www.w3.org/2000/svg"><path d="m96.398 94.636c.828-6.891.579-7.897 5.708-6.785l1.305.117c3.946.178 9.105-.635 12.187-2.041 6.526-3.027 10.395-8.085 3.961-6.754-14.675 3.026-15.742-1.945-15.742-1.945 15.504-23.004 21.988-52.203 16.387-59.348-15.254-19.5-41.666-10.278-42.108-10.035l-.142.026c-2.894-.61-6.094-.965-9.8-1.016-6.643-.101-11.68 1.742-15.51 4.642 0 0-47.109-19.409-44.92 24.41.467 9.324 13.355 70.586 28.742 52.051 5.632-6.774 11.065-12.497 11.065-12.497 2.692 1.792 5.926 2.706 9.313 2.376l.264-.223c-.078.878-.042 1.762.107 2.63-3.96 4.428-2.793 5.205-10.715 6.835-8.013 1.65-3.3 4.591-.233 5.363 3.727.934 12.35 2.255 18.18-5.9l-.234.928c1.554 1.245 1.447 8.938 1.676 14.432.228 5.495.589 10.629 1.71 13.65 1.123 3.022 2.438 10.817 12.849 8.633 8.698-1.863 15.35-4.55 15.96-29.504" fill="#000"/><path d="m96.398 94.636c.828-6.891.579-7.897 5.708-6.785l1.305.117c3.946.178 9.105-.635 12.187-2.041 6.526-3.027 10.395-8.085 3.961-6.754-14.675 3.026-15.742-1.945-15.742-1.945 15.504-23.004 21.988-52.203 16.387-59.348-15.254-19.5-41.666-10.278-42.108-10.035l-.142.026c-2.894-.61-6.094-.965-9.8-1.016-6.643-.101-11.68 1.742-15.51 4.642 0 0-47.109-19.409-44.92 24.41.467 9.324 13.355 70.586 28.742 52.051 5.632-6.774 11.065-12.497 11.065-12.497 2.692 1.792 5.926 2.706 9.313 2.376l.264-.223c-.078.878-.042 1.762.107 2.63-3.96 4.428-2.793 5.205-10.715 6.835-8.013 1.65-3.3 4.591-.233 5.363 3.727.934 12.35 2.255 18.18-5.9l-.234.928c1.554 1.245 1.447 8.938 1.676 14.432.228 5.495.589 10.629 1.71 13.65 1.123 3.022 2.438 10.817 12.849 8.633 8.698-1.863 15.35-4.55 15.96-29.504" stroke="#000" stroke-width="5.372"/><path d="m119.514 79.219c-14.676 3.026-15.743-1.945-15.743-1.945 15.504-23.004 21.989-52.204 16.393-59.349-15.255-19.5-41.666-10.273-42.108-10.034l-.142.026a52.357 52.357 0 0 0 -9.796-1.021c-6.642-.102-11.68 1.742-15.509 4.641 0 0-47.114-19.408-44.92 24.41.465 9.325 13.354 70.588 28.741 52.053 5.668-6.815 11.101-12.538 11.101-12.538 2.692 1.792 5.926 2.706 9.313 2.376l.265-.223c-.078.877-.042 1.762.106 2.63-3.96 4.428-2.793 5.205-10.715 6.835-8.013 1.65-3.3 4.591-.233 5.363 3.727.934 12.35 2.255 18.18-5.9l-.234.928c1.554 1.245 2.64 8.09 2.458 14.295-.183 6.206-.305 10.461.914 13.793 1.219 3.331 2.437 10.816 12.847 8.632 8.7-1.863 13.203-6.703 13.838-14.757.447-5.728 1.453-4.885 1.524-10.004l.812-2.427c.93-7.77.153-10.273 5.51-9.105l1.305.117c3.946.178 9.11-.635 12.137-2.042 6.525-3.026 10.395-8.084 3.961-6.753h-.005z" fill="#336791"/><g stroke="#fff"><path d="m78.05 7.653c-1.624.507 26.224-10.182 42.058 10.044 5.586 7.145-.889 36.344-16.392 59.348m-38.645 6.576c-.406 14.453.102 29.007 1.513 32.5 1.412 3.494 4.444 10.411 14.859 8.186 8.699-1.863 11.868-5.474 13.239-13.441l3.214-25.477zm-12.482-72.45s-47.145-19.275-44.952 24.544c.468 9.324 13.356 70.586 28.743 52.051 5.616-6.77 10.694-12.066 10.694-12.066l5.515-64.527z" stroke-linecap="round" stroke-linejoin="round" stroke-width="1.79"/><path d="m103.721 77.035s1.015 4.977 15.742 1.94c6.434-1.33 2.559 3.727-3.961 6.754-5.352 2.488-17.357 3.123-17.555-.305-.508-8.861 6.317-6.17 5.824-8.389-.446-2-3.503-3.96-5.514-8.856-1.763-4.266-24.172-37.02 6.215-32.16 1.117-.228-7.922-28.945-36.36-29.362-28.436-.416-27.537 34.963-27.537 34.963" stroke-linecap="round" stroke-linejoin="bevel" stroke-width="1.79"/><path d="m57.114 80.072c-3.961 4.428-2.793 5.205-10.715 6.835-8.014 1.65-3.301 4.59-.234 5.362 3.727.935 12.35 2.255 18.18-5.905 1.777-2.489-.01-6.45-2.448-7.455-1.178-.488-2.752-1.097-4.773 1.168z" stroke-linejoin="round" stroke-width="1.79"/><path d="m56.855 79.996c-.407-2.605.853-5.698 2.198-9.324 2.022-5.433 6.683-10.867 2.956-28.117-2.778-12.848-21.43-2.676-21.43-.935 0 1.742.843 8.836-.304 17.088-1.509 10.776 6.855 19.886 16.483 18.957" stroke-linecap="round" stroke-linejoin="round" stroke-width="1.79"/><path d="m52.416 41.361c-.086.594 1.092 2.184 2.62 2.397 1.53.213 2.834-1.026 2.92-1.625.087-.6-1.091-1.25-2.62-1.462-1.528-.214-2.843.101-2.92.69z" fill="#fff" stroke-width=".598"/><path d="m98.952 40.148c.082.594-1.091 2.183-2.62 2.396-1.528.214-2.844-1.025-2.92-1.624-.076-.6 1.092-1.25 2.62-1.463 1.529-.213 2.844.102 2.92.69z" fill="#fff" stroke-width=".297"/><path d="m104.416 36.03c.254 4.67-1.005 7.845-1.168 12.816-.233 7.221 3.443 15.489-2.097 23.766" stroke-linecap="round" stroke-linejoin="round" stroke-width="1.79"/></g></svg>
